X:1
T:[ID 2-129]
T:[ID 2-129]
T:Bezeichnung standardisiert: Polonaise Polonoise
T:Urheber unbekannt Datum in der hier transkribierten schriftlichen Quelle: 1767
C:Urheber unbekannt
C:Datum in der hier transkribierten schriftlichen Quelle: 1767
L:1/8
M:3/4
K:D
V:1 treble 
V:1
 d/c/d/e/ dDFA | d/c/d/e/ da/f/{e} d2 | ab/c'/ d'/a/f/d/ b2 | a2 g2 f2 | AB/c/ d/A/F/D/ B2 | %5
 Ad/B/ G2 F2 | EA/B/ c/d/e/f/ g/b/e/g/ | f/e/d/c/ d2 D2 :: A/^G/A/B/ AA,CE | A/^G/A/B/ Ac/e/ a2 | %10
 f/d/c/d/ bd Ed | c/B/A/^G/ A2 A,2 | d/c/d/e/ dg/f/ f2 | d/c/d/e/ db/a/ a2 | d/c/d/e/ dg/f/ f2 | %15
 d/c/d/e/ db/a/ a2 | b>c' d'/a/f/d/ Ag | f/e/d/c/ d2 D2 :| %18

